Sources/FrostedUI/Resources/Icons.xcassets/cubeSize24.imageset/cube-size-24.svg

<svg
  width="24"
  height="24"
  viewBox="0 0 24 24"
  fill="none"
  xmlns="http://www.w3.org/2000/svg"
  data-fui-icon="true"
>
  <path
    d="M12.0002 12V20.5M12.0002 12L4.5 7.78123M12.0002 12L19.2627 7.91472M20.25 8.52905V15.4709C20.25 16.1935 19.8603 16.8598 19.2305 17.2141L12.9805 20.7297C12.3717 21.0722 11.6283 21.0722 11.0195 20.7297L4.76948 17.2141C4.13972 16.8598 3.75 16.1935 3.75 15.4709V8.52905C3.75 7.80651 4.13972 7.14014 4.76948 6.7859L11.0195 3.27028C11.6283 2.92781 12.3717 2.92781 12.9805 3.27028L19.2305 6.7859C19.8603 7.14014 20.25 7.80651 20.25 8.52905Z"
    stroke="currentColor"
    stroke-width="1.5"
    stroke-linecap="round"
    stroke-linejoin="round"
  />
</svg>

<svg xmlns="http://www.w3.org/2000/svg" width="24" height="24" fill="none" data-fui-icon="true" viewBox="0 0 24 24"><path stroke="currentColor" stroke-linecap="round" stroke-linejoin="round" stroke-width="1.5" d="M12 12v8.5m0-8.5L4.5 7.781M12 12l7.263-4.085m.987.614v6.942a2 2 0 0 1-1.02 1.743l-6.25 3.516a2 2 0 0 1-1.96 0l-6.25-3.516a2 2 0 0 1-1.02-1.743V8.529a2 2 0 0 1 1.02-1.743l6.25-3.516a2 2 0 0 1 1.96 0l6.25 3.516a2 2 0 0 1 1.02 1.743"/></svg>
